images/svg/twitter.svg

<svg width="21" height="16" viewBox="0 0 21 16" fill="none" xmlns="http://www.w3.org/2000/svg">
<path d="M20.1109 0.499957C19.2593 1.06285 18.3164 1.49338 17.3185 1.77496C16.7829 1.19788 16.0711 0.788867 15.2794 0.603229C14.4876 0.417591 13.6541 0.464287 12.8916 0.737001C12.1291 1.00972 11.4744 1.49529 11.016 2.12805C10.5576 2.76082 10.3177 3.51024 10.3286 4.27496V5.10829C8.76581 5.14626 7.21723 4.82147 5.8208 4.16283C4.42437 3.50419 3.22344 2.53215 2.32498 1.33329C2.32498 1.33329 -1.2322 8.83329 6.77145 12.1666C4.93997 13.3316 2.7582 13.9157 0.546387 13.8333C8.55004 18 18.3323 13.8333 18.3323 4.24996C18.3315 4.01783 18.3076 3.78629 18.2611 3.55829C19.1687 2.71953 19.8092 1.66055 20.1109 0.499957Z" fill="white"/>
</svg>

<svg xmlns="http://www.w3.org/2000/svg" width="21" height="16" fill="none"><path fill="#fff" d="M20.11.5a9.978 9.978 0 0 1-2.791 1.275 4.035 4.035 0 0 0-2.04-1.172 4.237 4.237 0 0 0-2.387.134 3.952 3.952 0 0 0-1.876 1.391 3.568 3.568 0 0 0-.687 2.147v.833a10.011 10.011 0 0 1-4.508-.945 9.333 9.333 0 0 1-3.496-2.83s-3.557 7.5 4.446 10.834a10.865 10.865 0 0 1-6.225 1.666c8.004 4.167 17.786 0 17.786-9.583 0-.232-.024-.464-.07-.692A6.345 6.345 0 0 0 20.11.5Z"/></svg>
